public/svgs/spectrum/intern.svg

<svg width="1em" height="1em" viewBox="0 0 30 30" fill="current" xmlns="http://www.w3.org/2000/svg">
    <path
        d="M6.54544 15.8767V20.5433L12.5449 23.9046C13.7595 24.5851 15.2405 24.5851 16.4551 23.9046L22.4546 20.5433V15.8767L16.4551 19.2379C15.2405 19.9184 13.7595 19.9184 12.5449 19.2379L6.54544 15.8767ZM16.4544 5.09447C15.2402 4.4145 13.7598 4.4145 12.5456 5.09447L2 11L12.5454 16.9054C13.7597 17.5855 15.2402 17.5854 16.4545 16.9053L24.7273 12.2717V20.3333H27V11L16.4544 5.09447Z"
        fill="current" />
</svg>

<svg xmlns="http://www.w3.org/2000/svg" width="1em" height="1em" fill="current" viewBox="0 0 30 30"><path d="M6.545 15.877v4.666l6 3.362a4 4 0 0 0 3.91 0l6-3.362v-4.666l-6 3.36a4 4 0 0 1-3.91 0zm9.91-10.783a4 4 0 0 0-3.91 0L2 11l10.545 5.905a4 4 0 0 0 3.91 0l8.272-4.633v8.061H27V11z"/></svg>
